other/shoppinglist.svg

<?xml version="1.0" encoding="UTF-8" standalone="no"?>
<svg width="48" height="48" viewBox="0 0 48 48" version="1.1" >
    <defs>
        <style>.cls-1{fill:#fff;}</style>
    </defs>
    <path
        class="cls-1"
        id="cart"
        d="m 39.787025,36.95504 a 2.3327558,2.2324786 0 0 1 -2.332756,2.232479 2.3327558,2.2324786 0 0 1 -2.332755,-2.232479 2.3327558,2.2324786 0 0 1 2.332755,-2.232479 2.3327558,2.2324786 0 0 1 2.332756,2.232479 z m -24.387003,0 a 2.3327558,2.2324786 0 0 1 -2.332756,2.232479 2.3327558,2.2324786 0 0 1 -2.332755,-2.232479 2.3327558,2.2324786 0 0 1 2.332755,-2.232479 2.3327558,2.2324786 0 0 1 2.332756,2.232479 z M 5.287879,8.9213221 V 11.80011 h 2.878788 l 2.30303,19 31.32121,-5.74606 0.921212,-4.617576 L 41,12 10.469697,11.80011 V 8.9213221 Z M 14,27.386892 12,27.739546 10.513896,14 14,14.058874 Z M 19,14 V 26.505257 L 16,27 V 14 Z m 2,12.152603 V 14 h 3 V 25.623622 Z M 29,14 v 10.741987 l -3,0.528981 V 14 Z m 2,10.389333 V 14 h 3 v 9.860352 z M 39,14 v 8.978717 l -3,0.528981 V 14 Z m 3.712121,19.678898 v -2.30303 l -32.242422,2.3e-5 v 2.30303 z" />
</svg>

<?xml version="1.0" encoding="UTF-8"?>
<svg version="1.1" viewBox="0 0 48 48" xmlns="http://www.w3.org/2000/svg">
    <defs>
        <style>.cls-1{fill:#fff;}</style>
    </defs>
    <path class="cls-1" d="m39.787 36.955a2.3328 2.2325 0 0 1-2.3328 2.2325 2.3328 2.2325 0 0 1-2.3328-2.2325 2.3328 2.2325 0 0 1 2.3328-2.2325 2.3328 2.2325 0 0 1 2.3328 2.2325zm-24.387 0a2.3328 2.2325 0 0 1-2.3328 2.2325 2.3328 2.2325 0 0 1-2.3328-2.2325 2.3328 2.2325 0 0 1 2.3328-2.2325 2.3328 2.2325 0 0 1 2.3328 2.2325zm-10.112-28.034v2.8788h2.8788l2.303 19 31.321-5.7461 0.92121-4.6176-1.7121-8.4365-30.53-0.19989v-2.8788zm8.7121 18.466-2 0.35265-1.4861-13.74 3.4861 0.058874zm5-13.387v12.505l-3 0.49474v-13zm2 12.153v-12.153h3v11.624zm8-12.153v10.742l-3 0.52898v-11.271zm2 10.389v-10.389h3v9.8604zm8-10.389v8.9787l-3 0.52898v-9.5077zm3.7121 19.679v-2.303l-32.242 2.3e-5v2.303z"/>
</svg>
